X: 100330
M: C|
L: 1/8
K: Bb
((3uFGA) |\
|: (uAG) |\
(FA)cA (ec)AF | (BF)dB (gf)dB | (Ac)fa (gb)=eg | f2f2 f=e_ec |


